logos/compose-multiplatform.svg

<?xml version="1.0" encoding="UTF-8"?>
<svg width="256px" height="286px" viewBox="0 0 256 286" version="1.1" xmlns="http://www.w3.org/2000/svg" preserveAspectRatio="xMidYMid">
    <title>Compose Multiplatform</title>
    <g>
        <path d="M126.936447,0 C132.248668,0.0898888717 137.461706,1.50609469 142.101338,4.12642434 L238.728264,58.6996903 C242.621093,60.900739 246.093763,63.8389207 248.878533,67.2810746 L248.973797,67.2235591 L250.413292,69.3359044 L250.582936,69.5780905 L252.380855,72.2283741 L252.253001,72.3053396 C254.639378,76.6515952 255.951737,81.3961523 256,86.2217925 L256,197.16289 C256.050677,202.765033 254.627851,208.283365 251.872071,213.166244 C249.116035,218.046161 245.12457,222.114728 240.298084,224.963588 L144.71948,281.356674 C140.735992,283.710907 136.312533,285.148087 131.750523,285.613117 L131.749909,285.754833 L125.636634,285.80414 L125.640463,285.652951 C121.135833,285.248224 116.755019,283.890235 112.794389,281.655028 L11.2694511,224.308536 C4.37243872,220.425938 0.0790250697,213.147718 0,205.195715 L0,87.7070848 C0.0569097513,83.5626721 0.77879485,79.5635018 2.14601289,75.8855822 L2.03202819,75.8205459 L4.64840431,70.3544915 L4.79640495,70.4361276 C7.23099819,66.4903554 10.5322304,63.2174645 14.5962669,60.8160592 L110.17659,4.43345785 C115.000734,1.58291522 120.492161,0.0539760447 126.097959,0 L126.936447,0 Z M7.49945182,78.8820889 L7.28521886,79.5616891 C6.4340505,82.3767819 6.01390702,85.4179918 6.045975,88.5877889 L6.04582517,205.165618 C6.10319945,210.928054 9.22442514,216.219175 14.2391359,219.042155 L115.766906,276.390244 C118.784145,278.093042 122.102725,279.1679 125.522661,279.563073 L125.734484,279.583331 L125.758025,274.651283 L125.778831,253.964695 L125.745811,230.483385 L125.609399,230.470071 C123.51173,230.193405 121.466676,229.593388 119.547186,228.688967 L118.833405,228.335577 L118.201774,227.993311 L56.6950715,193.252169 C54.4589745,191.991063 52.5954971,190.164257 51.2917964,187.954781 C49.9883957,185.748011 49.2894936,183.234446 49.2629184,180.636668 L49.2630647,110.021849 C49.2409613,107.775105 49.5233834,105.5853 50.1039354,103.520321 L50.3002585,102.859394 L7.49945182,78.8820889 Z M247.057049,75.4090975 L204.857365,100.612002 L204.950299,100.804711 C205.99211,103.052811 206.601286,105.446047 206.716557,107.890144 L206.735703,108.557906 L206.733817,175.758492 C206.768615,179.363147 205.853347,182.913482 204.080341,186.050496 C202.308405,189.189237 199.740539,191.806435 196.636213,193.637926 L138.734874,227.801198 C136.731674,228.985395 134.553731,229.807265 132.292637,230.251351 L131.796163,230.339606 L131.805294,235.118109 L131.826616,262.796333 L131.785861,279.052114 L131.780459,279.522261 L132.68362,279.393758 C135.570625,278.923408 138.364095,277.967822 140.94634,276.54903 L141.645263,276.150619 L237.2253,219.756687 C241.137601,217.44743 244.37338,214.149147 246.607218,210.193848 C248.841339,206.23528 249.994762,201.761808 249.950901,197.191948 L249.95279,86.2511882 C249.919405,82.8237127 249.055086,79.3993766 247.457382,76.1798309 L247.057049,75.4090975 Z M124.000068,86.5846779 C123.085756,86.8551328 122.206342,87.2372594 121.384508,87.7205884 L82.5716168,110.616774 C81.4426858,111.28157 80.4515996,112.15575 79.6507042,113.190458 C79.3366275,113.595268 79.0557035,114.021016 78.8044422,114.464213 C78.6788115,114.687556 78.5601603,114.912645 78.4484886,115.144712 L78.2391042,115.664684 C77.7557752,116.814553 77.4347191,118.044686 77.3090884,119.33589 C77.2637218,119.829689 77.2410385,120.330466 77.2455326,120.836479 L77.2455326,168.192254 C77.2602321,169.554998 77.6318894,170.891568 78.3246029,172.067611 C79.0173163,173.241908 80.0084025,174.213801 81.1966591,174.882086 L122.426195,198.170868 C124.214687,199.181147 126.238737,199.704609 128.292449,199.68716 L128.732156,199.669711 L128.734523,212.419788 L128.762691,224.583979 L128.733901,199.667966 C130.648023,199.585957 132.51329,199.034578 134.165682,198.060941 L172.978573,175.161265 C174.753106,174.114343 176.220542,172.618989 177.234311,170.825263 C177.396584,170.537359 177.541408,170.240731 177.679253,169.938869 C178.398139,168.370231 178.764562,166.665493 178.750603,164.939816 L178.752348,119.878545 C178.743624,119.058456 178.633697,118.252326 178.434782,117.470624 C178.303916,116.948908 178.131174,116.437661 177.923535,115.940373 C177.820587,115.692601 177.707171,115.44832 177.586775,115.207528 C177.443696,114.923114 177.286657,114.645679 177.122639,114.37348 L176.945971,114.088848 L176.763196,113.808142 C176.480527,113.394608 176.175175,112.996777 175.847139,112.619885 C174.856053,111.47874 173.676521,110.515572 172.360889,109.768767 L133.122249,87.6089167 C131.551866,86.7207778 129.798272,86.207786 127.995821,86.1083284 C126.647036,86.0350439 125.294762,86.1955719 124.000068,86.5846779 Z M126.15721,6.04568457 C121.612331,6.08944562 117.161695,7.32860479 113.250368,9.63977158 L17.6700459,66.0223719 C14.7613001,67.741126 12.3531724,70.018758 10.4920261,72.7608334 L10.0757673,73.3955174 L52.9751444,97.4153996 L53.4214856,96.8090303 C54.7178619,95.1165744 56.2960361,93.6596009 58.129235,92.4880103 L58.6925283,92.1417696 L116.595701,57.9819347 C119.698606,56.1480278 123.230768,55.1639559 126.835964,55.1291725 C130.440618,55.0943746 133.990954,56.0096423 137.128583,57.7829959 L195.667973,90.8487041 C197.684571,91.9885205 199.525027,93.4381714 201.110077,95.1360846 L201.503725,95.5710719 L243.619655,70.4170241 L243.157314,69.8902789 C241.219143,67.7453654 238.942317,65.8694128 236.441336,64.3645133 L235.753778,63.9633625 L139.128129,9.39081817 C135.168501,7.15453514 130.69548,6.00042673 126.15721,6.04568457 Z" fill="#4285F4"></path>
    </g>
</svg>

<svg preserveAspectRatio="xMidYMid" viewBox="0 0 256 286" xmlns="http://www.w3.org/2000/svg">
  <path fill="#4285F4" d="M126.936 0a31.937 31.937 0 0 1 15.165 4.126L238.728 58.7a35.72 35.72 0 0 1 10.15 8.581l.096-.057 1.44 2.112.169.242 1.798 2.65-.128.077c2.386 4.347 3.699 9.091 3.747 13.917v110.94a31.935 31.935 0 0 1-15.702 27.8l-95.579 56.395a31.809 31.809 0 0 1-12.968 4.256l-.001.142-6.113.05.003-.152a31.956 31.956 0 0 1-12.846-3.998L11.27 224.309C4.372 220.426.08 213.148 0 205.196V87.707c.057-4.144.779-8.143 2.146-11.821l-.114-.065 2.616-5.467.148.082a28.438 28.438 0 0 1 9.8-9.62l95.58-56.383A31.9 31.9 0 0 1 126.099 0h.838ZM7.5 78.882l-.214.68c-.85 2.815-1.271 5.856-1.239 9.026v116.578a16.1 16.1 0 0 0 8.193 13.876l101.528 57.348a25.899 25.899 0 0 0 9.756 3.173l.211.02.024-4.932.02-20.686-.032-23.482-.137-.013a20.516 20.516 0 0 1-6.062-1.781l-.714-.353-.631-.343-61.507-34.74a14.6 14.6 0 0 1-5.403-5.298 14.651 14.651 0 0 1-2.03-7.318l.001-70.615c-.022-2.247.26-4.437.84-6.502l.197-.66L7.5 78.881Zm239.558-3.473-42.2 25.203.093.193c1.042 2.248 1.651 4.641 1.767 7.085l.019.668-.002 67.2a20.527 20.527 0 0 1-10.098 17.88L138.735 227.8a20.36 20.36 0 0 1-6.442 2.45l-.497.089.01 4.778.02 27.678-.04 16.256-.006.47.904-.128a25.744 25.744 0 0 0 8.262-2.845l.7-.398 95.58-56.394a25.888 25.888 0 0 0 9.381-9.563 25.915 25.915 0 0 0 3.344-13.002l.002-110.94c-.034-3.428-.898-6.853-2.496-10.072l-.4-.77ZM124 86.585c-.914.27-1.794.652-2.615 1.136l-38.813 22.896a10.31 10.31 0 0 0-2.921 2.573 10.75 10.75 0 0 0-1.203 1.954l-.209.52a12.604 12.604 0 0 0-.93 3.672c-.045.494-.068.994-.063 1.5v47.356a7.802 7.802 0 0 0 1.079 3.876 7.743 7.743 0 0 0 2.872 2.814l41.23 23.289a11.728 11.728 0 0 0 5.865 1.516l.44-.017.003 12.75.028 12.164-.03-24.916a11.684 11.684 0 0 0 5.433-1.607l38.813-22.9a11.742 11.742 0 0 0 4.255-4.336c.163-.288.307-.584.445-.886a11.766 11.766 0 0 0 1.072-5l.001-45.06a10.194 10.194 0 0 0-.317-2.408 10.786 10.786 0 0 0-.511-1.53 11.556 11.556 0 0 0-.801-1.568l-.177-.284-.183-.28a12.881 12.881 0 0 0-.916-1.19 13.334 13.334 0 0 0-3.486-2.85l-39.239-22.16A11.682 11.682 0 0 0 124 86.585Zm2.157-80.54A25.857 25.857 0 0 0 113.25 9.64L17.67 66.022a22.357 22.357 0 0 0-7.178 6.739l-.416.635 42.9 24.02.445-.607a18.368 18.368 0 0 1 4.708-4.321l.564-.346 57.903-34.16a20.515 20.515 0 0 1 20.533-.199l58.539 33.066a22.812 22.812 0 0 1 5.442 4.287l.394.435 42.116-25.154-.463-.527a29.758 29.758 0 0 0-6.716-5.525l-.687-.402-96.626-54.572a25.852 25.852 0 0 0-12.97-3.345Z"/>
</svg>
